logos/sublimetext.svg

<?xml version="1.0" encoding="UTF-8"?>
<svg width="512px" height="62px" viewBox="0 0 512 62" version="1.1" xmlns="http://www.w3.org/2000/svg" xmlns:xlink="http://www.w3.org/1999/xlink" preserveAspectRatio="xMidYMid">
    <defs>
        <linearGradient x1="55.1170996%" y1="58.6795405%" x2="63.6801778%" y2="39.5971572%" id="linearGradient-1">
            <stop stop-color="#FF9700" offset="0%"></stop>
            <stop stop-color="#F48E00" offset="53%"></stop>
            <stop stop-color="#D06F00" offset="100%"></stop>
        </linearGradient>
    </defs>
    <g>
				<path d="M498.976543,7.40915587 L498.976543,16.5251625 C498.976543,16.9815277 499.169708,17.2085806 499.557166,17.2085806 L509.697735,17.2085806 L509.697735,22.9447742 L498.976543,22.9447742 L498.976543,41.9630008 C498.976543,44.1488091 499.341409,45.6850878 500.068883,46.5729665 C500.797485,47.4608452 502.118007,47.9047846 504.030448,47.9047846 C505.806206,47.9047846 507.831609,47.5060299 510.107786,46.7096501 L511.712971,51.7624256 C508.161457,53.4014994 504.712737,54.2216011 501.366812,54.2216011 C497.724928,54.2216011 495.078236,53.4014994 493.427866,51.7624256 C491.777496,50.1244814 490.952876,47.5636403 490.952876,44.0799025 L490.952876,23.6620808 C490.952876,23.2068453 490.712268,23.0758097 490.379031,22.8679603 C489.235859,22.1517833 485.353366,22.0309143 485.353366,22.0309143 L485.353366,17.0798043 C487.970688,16.7612524 489.928314,15.7366901 491.226243,14.0072469 C492.523043,12.2766742 493.410922,10.6873035 493.88875,7.40915587 L498.976543,7.40915587 Z M100.466979,1.84353444 C105.088241,1.84353444 109.584115,2.69752465 113.954602,4.40437547 L113.954602,17.00412 L107.945041,16.4573855 L106.954367,10.653415 C106.817684,9.94740457 106.590631,9.50346521 106.272079,9.32159692 C105.019334,8.57040182 102.960043,8.19423947 100.091946,8.19423947 C96.9730743,8.19423947 94.5997497,8.83699136 92.971972,10.1236248 C91.345324,11.4102582 90.5308703,13.1905341 90.5308703,15.4667117 C90.5308703,16.491274 90.7421087,17.4243374 91.1623261,18.2670315 C91.5836731,19.1097255 92.0502048,19.7863659 92.5630508,20.2992119 C93.0747671,20.8109283 93.8654988,21.3226446 94.9352458,21.8354906 C96.0049928,22.347207 96.9098158,22.7290174 97.6497147,22.9786627 C98.3896136,23.2294376 99.4650087,23.5705818 100.87703,24.003225 C102.743156,24.5725518 104.155177,25.0277874 105.110833,25.3689316 C106.066489,25.7100759 107.324882,26.301995 108.883753,27.144689 C110.442624,27.9873831 111.620814,28.8741322 112.417194,29.8083252 C113.214703,30.7413886 113.925232,31.998652 114.552169,33.5812449 C115.177977,35.1627083 115.490881,36.95541 115.490881,38.9582204 C115.490881,44.1714014 113.732068,48.0188759 110.215571,50.4995141 C106.697944,52.981282 102.139941,54.2216011 96.5404311,54.2216011 C93.6045574,54.2216011 90.673202,53.9312896 87.7486244,53.3506666 C84.8229172,52.7700436 82.6664789,52.1498841 81.27818,51.4901879 L81.27818,39.1638106 L87.2527227,39.1638106 L88.6184293,45.4806271 C88.7099282,45.9358627 88.8296676,46.2431184 88.9776474,46.4023944 C89.1256272,46.5616703 89.4046425,46.7209463 89.8135637,46.8802222 C92.226425,47.5636403 94.5376207,47.9047846 96.7448917,47.9047846 L96.950482,47.9047846 L96.950482,47.9047846 C103.893106,47.9047846 107.364418,45.2750369 107.364418,40.0166712 C107.364418,38.6746866 107.107995,37.5077926 106.596279,36.5171187 C106.083433,35.5275745 105.281405,34.7074728 104.189066,34.0590728 C103.096726,33.4106728 102.072164,32.8978268 101.115379,32.5227941 C100.159723,32.1466317 98.8392011,31.7309328 97.1549426,31.2756973 C92.579995,29.9337127 89.4611233,28.7148562 87.7994572,27.6225169 C84.2027576,25.2548403 82.4044079,21.60166 82.4044079,16.6618462 C82.4044079,11.7683467 84.0717221,8.0745001 87.4063506,5.58256568 C90.7421087,3.08950165 95.0945218,1.84353444 100.466979,1.84353444 Z M423.968865,16.5251625 C433.847363,16.5251625 438.787177,22.1370983 438.787177,33.3587105 C438.787177,34.7470094 438.7194,36.1014198 438.582717,37.4219417 L416.012975,37.4219417 C416.194843,40.8367729 417.031889,43.4145582 418.522983,45.1564272 C420.012948,46.8971665 422.386273,47.7681009 425.641828,47.7681009 C428.577702,47.7681009 432.003829,46.9479992 435.91908,45.310055 L438.172666,50.909565 C433.893678,53.0942436 429.420396,54.1990088 424.753949,54.2216011 C413.235248,54.1990088 407.476462,47.8245818 407.476462,35.1005794 C407.476462,29.0458339 409.012741,24.4358682 412.086428,21.2718119 C415.158985,18.1077555 419.120551,16.5251625 423.968865,16.5251625 Z M322.745044,16.5251625 C332.624671,16.5251625 337.564485,22.1370983 337.564485,33.3587105 C337.564485,34.7470094 337.495578,36.1014198 337.358895,37.4219417 L314.790283,37.4219417 C314.972151,40.8367729 315.808067,43.4145582 317.299162,45.1564272 C318.790256,46.8971665 321.16358,47.7681009 324.418006,47.7681009 C327.355009,47.7681009 330.781137,46.9479992 334.696388,45.310055 L336.949973,50.909565 C332.669856,53.0942436 328.197703,54.1990088 323.531257,54.2216011 C312.012555,54.1990088 306.25377,47.8245818 306.25377,35.1005794 C306.25377,29.0458339 307.790048,24.4358682 310.862606,21.2718119 C313.936293,18.1077555 317.896729,16.5251625 322.745044,16.5251625 Z M172.16262,0.580622978 L172.16262,20.281138 C176.123057,17.7779075 179.935513,16.5251625 183.601119,16.5251625 L183.702785,16.5251625 L183.702785,16.5251625 C187.799904,16.5251625 191.049811,17.9597757 193.451377,20.8278725 C195.852942,23.6959693 197.053724,28.1353629 197.053724,34.1437941 C197.053724,41.0412336 195.733202,46.1120829 193.093288,49.3552124 C190.452244,52.5994715 186.81036,54.2216011 182.166506,54.2216011 C177.977887,54.2216011 174.495279,52.8445983 171.718681,50.0894632 L171.445314,50.0894632 L171.035263,53.3676109 L163.284963,53.3676109 C163.876882,50.0216862 164.172842,46.7774271 164.172842,43.6359631 L164.172842,7.85309522 C164.172842,7.05671546 163.876882,6.56646182 163.284963,6.38459353 L159.289509,5.05277545 L159.972927,0.580622978 L172.16262,0.580622978 Z M131.399273,17.2085806 L131.399273,40.5634057 C131.399273,43.0903582 131.717824,44.9225965 132.354928,46.0612501 C132.993162,47.1987741 134.233481,47.7681009 136.077015,47.7681009 C139.377755,47.7681009 142.620885,46.1403233 145.808663,42.8858976 L145.808663,24.1399087 C145.808663,23.5705818 145.751053,23.1955491 145.636961,23.0136808 C145.524,22.8306829 145.205448,22.6939993 144.681306,22.60363 L141.335381,21.7496397 L141.949892,17.2085806 L153.866219,17.2085806 L153.866219,47.0169058 C153.866219,47.8595999 154.162178,48.3261316 154.754098,48.4165009 L158.407278,48.8943288 L158.407278,53.3676109 L147.344942,53.3676109 L146.73043,49.099919 L146.52484,49.0310124 C142.200667,52.4910283 137.841477,54.2216011 133.448397,54.2216011 C129.760199,54.2216011 127.159821,53.2761119 125.646135,51.3873928 C124.132448,49.4975441 123.375605,46.4701714 123.375605,42.3052746 L123.375605,24.1399087 C123.375605,23.5705818 123.312347,23.1955491 123.186959,23.0136808 C123.062701,22.8306829 122.749798,22.6939993 122.248248,22.60363 L118.662844,21.7496397 L119.312374,17.2085806 L131.399273,17.2085806 Z M288.296253,16.5251625 C291.984451,16.5251625 294.618718,17.5497249 296.201311,19.5988496 C297.782774,21.6468446 298.573506,24.6064403 298.573506,28.4765071 L298.573506,47.0169058 C298.573506,47.5862327 298.631116,47.9499692 298.745207,48.1092452 C298.858169,48.2685211 299.176721,48.3713163 299.700863,48.4165009 L303.524616,48.8943288 L303.524616,53.3676109 L285.7693,53.3676109 L285.7693,48.9632354 L289.42361,48.4854075 C290.124726,48.4000085 290.488322,47.9879143 290.515317,47.2482065 L290.51595,30.6272973 C290.51595,28.2596207 290.225638,26.4443267 289.645015,25.1814152 C289.064392,23.9185038 287.886202,23.2859184 286.111574,23.2859184 C283.26607,23.2859184 280.409269,24.2201114 277.541173,26.0862382 C277.723041,27.1559852 277.81454,28.465211 277.81454,30.0127858 L277.81454,47.0169058 C277.81454,47.5862327 277.871021,47.9499692 277.985112,48.1092452 C278.098074,48.2685211 278.405329,48.3713163 278.906879,48.4165009 L282.150009,48.8943288 L282.150009,53.3676109 L264.941428,53.3676109 L264.941428,48.9632354 L268.629626,48.4854075 C269.084862,48.4390933 269.38647,48.3091873 269.534449,48.0923009 C269.682429,47.8765441 269.755854,47.5399184 269.755854,47.0846828 L269.755854,31.0034597 C269.755854,29.7507147 269.721966,28.7498744 269.653059,27.9986793 C269.585282,27.2474842 269.426006,26.4612709 269.175231,25.6422988 C268.925586,24.8233268 268.481647,24.2144634 267.843413,23.8157087 C267.206309,23.416954 266.398633,23.2181414 265.419256,23.2181414 C262.66525,23.2181414 259.774561,24.4132759 256.747188,26.8035448 L256.747188,47.0169058 C256.747188,47.5862327 256.809317,47.9499692 256.934705,48.1092452 C257.060092,48.2685211 257.372996,48.3713163 257.873416,48.4165009 L261.288248,48.8943288 L261.288248,53.3676109 L244.250239,53.3676109 L244.250239,48.9632354 L247.596164,48.4165009 C248.051399,48.3713163 248.353007,48.2515769 248.500987,48.0584124 C248.648966,47.865248 248.722392,47.517326 248.722392,47.0169058 L248.722392,24.4810529 C248.722392,23.6846731 248.415136,23.1955491 247.800624,23.0136808 L243.942983,21.6818627 L244.65916,17.2085806 L255.00532,17.2085806 L255.552054,21.1351283 L255.85931,21.2040349 C259.95643,18.0851632 263.939458,16.5251625 267.809525,16.5251625 C271.769961,16.5251625 274.547688,17.9258872 276.140448,20.7250774 C280.46575,17.9258872 284.517685,16.5251625 288.296253,16.5251625 Z M212.788155,0.580622978 L212.788155,47.0169058 C212.788155,47.5862327 212.851414,47.9499692 212.976801,48.1092452 C213.101059,48.2685211 213.413963,48.3713163 213.915512,48.4165009 L217.84206,48.8943288 L217.84206,53.3676109 L199.642806,53.3676109 L199.642806,48.9632354 L203.63826,48.4165009 C204.093495,48.3713163 204.395103,48.2515769 204.543083,48.0584124 C204.691063,47.865248 204.764488,47.517326 204.764488,47.0169058 L204.764488,7.85309522 C204.764488,7.05671546 204.457232,6.56646182 203.84272,6.38459353 L199.847266,5.05277545 L200.564573,0.580622978 L212.788155,0.580622978 Z M235.224602,17.2085806 L235.224602,47.0169058 C235.224602,47.5862327 235.286731,47.9499692 235.412118,48.1092452 C235.537506,48.2685211 235.850409,48.3713163 236.35083,48.4165009 L240.482967,48.8943288 L240.482967,53.3676109 L221.873662,53.3676109 L221.873662,48.9632354 L226.073577,48.4165009 C226.528812,48.3713163 226.83042,48.2515769 226.9784,48.0584124 C227.12638,47.865248 227.200934,47.517326 227.200934,47.0169058 L227.200934,24.4810529 C227.200934,23.6846731 226.892549,23.1955491 226.278038,23.0136808 L222.420397,21.6818627 L223.137703,17.2085806 L235.224602,17.2085806 Z M408.534913,2.73141316 L408.534913,15.6033953 L402.730942,15.6033953 L401.603585,9.52605754 C401.513215,9.00304501 401.137053,8.74097394 400.477357,8.74097394 L391.052965,8.74097394 L391.052965,46.9479992 C391.052965,47.4721414 391.110575,47.8076375 391.223537,47.9556173 C391.337628,48.1035971 391.65618,48.2007441 392.180322,48.2459288 L399.862845,48.8265518 L399.862845,53.3676109 L374.526673,53.3676109 L374.526673,48.8265518 L381.731368,48.3487239 C382.186603,48.3024096 382.488211,48.1950961 382.636191,48.0245239 C382.784171,47.8528222 382.858725,47.4947337 382.858725,46.9479992 L382.858725,8.74097394 L373.50324,8.74097394 C372.842414,8.74097394 372.467381,9.00304501 372.375882,9.52605754 L371.249655,15.6033953 L365.376777,15.6033953 L365.376777,2.73141316 L408.534913,2.73141316 Z M460.750315,17.2085806 L460.750315,21.7496397 L456.823767,22.3302627 L463.311156,30.6272973 L470.379167,22.3302627 L466.111475,21.7496397 L466.828782,17.2085806 L481.169266,17.2085806 L481.169266,21.7496397 L478.095579,22.4669463 C477.435883,22.6939993 476.798779,23.1379386 476.184267,23.7987644 L467.169926,34.4171613 L477.242718,47.0169058 C477.902414,47.7681009 478.528222,48.1781518 479.120141,48.2459288 L482.636638,48.8943288 L482.636638,53.3676109 L464.710751,53.3676109 L464.710751,48.8943288 L468.638428,48.2459288 L461.842654,39.3682712 L454.639088,48.2459288 L458.90678,48.8943288 L458.90678,53.3676109 L443.20059,53.3676109 L443.20059,48.9632354 L446.409831,48.3487239 C447.20621,48.2120403 447.900925,47.7906933 448.492844,47.0846828 L458.086678,35.6122958 L448.492844,23.7298578 C447.968702,23.1153463 447.411801,22.7177212 446.819882,22.5347233 L443.882878,21.7496397 L444.600185,17.2085806 L460.750315,17.2085806 Z M181.381422,23.0814578 C178.535918,23.0814578 175.485953,24.2314076 172.230397,26.5301776 L172.230397,43.7048697 C175.075902,46.3685059 177.966591,47.6991943 180.903594,47.6991943 C186.115646,47.6991943 188.722801,43.3411331 188.722801,34.6227515 C188.722801,30.8893684 188.07892,28.0325678 186.793416,26.0523497 C185.506782,24.0721317 183.702785,23.0814578 181.381422,23.0814578 Z M322.60836,22.60363 C320.468866,22.60363 318.68746,23.349177 317.265273,24.840271 C315.843086,26.331365 315.039928,28.5905984 314.85806,31.6179711 L329.539688,31.6179711 C329.539688,25.6084103 327.229622,22.60363 322.60836,22.60363 Z M423.832182,22.60363 C421.692688,22.60363 419.911282,23.349177 418.487965,24.840271 C417.065778,26.331365 416.26375,28.5905984 416.080752,31.6179711 L430.76351,31.6179711 C430.76351,25.6084103 428.452314,22.60363 423.832182,22.60363 Z M230.341269,0 C231.980343,0 233.266976,0.443939359 234.200039,1.33181808 C235.133103,2.21969679 235.599634,3.48260825 235.599634,5.12168207 C235.599634,6.80594055 235.133103,8.09822205 234.200039,8.99739693 C233.266976,9.8954422 231.980343,10.3450296 230.341269,10.3450296 C228.65701,10.3450296 227.36021,9.8954422 226.449739,8.99739693 C225.538139,8.09822205 225.082903,6.80594055 225.082903,5.12168207 C225.082903,3.48260825 225.538139,2.21969679 226.449739,1.33181808 C227.36021,0.443939359 228.65701,0 230.341269,0 Z" fill="#FFFFFF"></path>
				<g transform="translate(0.000000, 3.583576)">
						<path d="M40.6605527,26.5658939 C40.6605527,25.946864 40.203058,25.5899051 39.6416385,25.7672549 L1.01891425,38.0145591 C0.456365143,38.1930385 0,38.8403089 0,39.4582092 L0,51.9754917 C0,52.5945217 0.456365143,52.9526102 1.01891425,52.7741307 L39.6416385,40.5279562 C40.203058,40.3494768 40.6605527,39.7022064 40.6605527,39.0831764 L40.6605527,26.5658939 L40.6605527,26.5658939 Z" fill="url(#linearGradient-1)"></path>
						<path d="M7.55485778e-15,26.1671392 C7.55485778e-15,26.7861692 0.456365143,27.4334395 1.01891425,27.611919 L39.6472866,39.8603527 C40.2098357,40.0388322 40.6662008,39.6807437 40.6662008,39.0628433 L40.6662008,26.5444312 C40.6662008,25.9265309 40.2098357,25.2792605 39.6472866,25.1007811 L1.01891425,12.8523473 C0.456365143,12.6738679 7.55485778e-15,13.0308267 7.55485778e-15,13.6498567 L7.55485778e-15,26.1671392 Z" fill="#FF9800"></path>
						<path d="M40.6605527,0.844521896 C40.6605527,0.22549195 40.203058,-0.132596541 39.6416385,0.0458828962 L1.01891425,12.2920574 C0.456365143,12.4705369 0,13.1178072 0,13.7368372 L0,26.2541197 C0,26.8731497 0.456365143,27.2301085 1.01891425,27.0527587 L39.6416385,14.8054546 C40.203058,14.6269751 40.6605527,13.9797048 40.6605527,13.3618044 L40.6605527,0.844521896 Z" fill="#FF9800"></path>
				</g>
		</g>
</svg>

<svg preserveAspectRatio="xMidYMid" viewBox="0 0 512 62" xmlns="http://www.w3.org/2000/svg">
  <defs>
    <linearGradient id="sublimetext_svg__a" x1="55.117%" x2="63.68%" y1="58.68%" y2="39.597%">
      <stop offset="0%" stop-color="#FF9700"/>
      <stop offset="53%" stop-color="#F48E00"/>
      <stop offset="100%" stop-color="#D06F00"/>
    </linearGradient>
  </defs>
  <path fill="#FFF" d="M498.977 7.41v9.115c0 .457.193.684.58.684h10.14v5.736h-10.72v19.018c0 2.186.364 3.722 1.092 4.61.728.888 2.049 1.332 3.961 1.332 1.776 0 3.802-.399 6.078-1.195l1.605 5.052c-3.552 1.64-7 2.46-10.346 2.46-3.642 0-6.289-.82-7.94-2.46-1.65-1.638-2.474-4.198-2.474-7.682V23.662c0-.455-.24-.586-.574-.794-1.143-.716-5.026-.837-5.026-.837V17.08c2.618-.319 4.575-1.343 5.873-3.073 1.297-1.73 2.185-3.32 2.663-6.598h5.088Zm-398.51-5.566c4.621 0 9.117.854 13.488 2.56v12.6l-6.01-.547-.99-5.804c-.137-.706-.364-1.15-.683-1.331-1.253-.752-3.312-1.128-6.18-1.128-3.119 0-5.492.643-7.12 1.93-1.627 1.286-2.441 3.067-2.441 5.343 0 1.024.211 1.957.631 2.8.422.843.888 1.52 1.401 2.032.512.512 1.302 1.024 2.372 1.536 1.07.512 1.975.894 2.715 1.144.74.25 1.815.592 3.227 1.024 1.866.57 3.278 1.025 4.234 1.366.955.341 2.214.933 3.773 1.776 1.559.842 2.737 1.73 3.533 2.663.798.933 1.508 2.19 2.135 3.773.626 1.582.939 3.374.939 5.377 0 5.213-1.759 9.06-5.275 11.542-3.518 2.481-8.076 3.722-13.676 3.722-2.935 0-5.867-.29-8.791-.871-2.926-.581-5.083-1.201-6.47-1.86V39.163h5.974l1.365 6.317c.092.455.212.762.36.921.148.16.427.319.836.478 2.412.684 4.724 1.025 6.93 1.025h.206c6.943 0 10.414-2.63 10.414-7.888 0-1.342-.256-2.51-.768-3.5-.513-.99-1.315-1.81-2.407-2.458-1.092-.648-2.117-1.161-3.074-1.536-.955-.376-2.276-.792-3.96-1.247-4.575-1.342-7.694-2.561-9.356-3.653-3.596-2.368-5.395-6.021-5.395-10.961 0-4.894 1.668-8.587 5.002-11.08 3.336-2.492 7.689-3.738 13.061-3.738Zm323.502 14.681c9.878 0 14.818 5.612 14.818 16.834 0 1.388-.068 2.742-.204 4.063h-22.57c.182 3.415 1.019 5.993 2.51 7.734 1.49 1.741 3.863 2.612 7.119 2.612 2.936 0 6.362-.82 10.277-2.458l2.254 5.6c-4.28 2.184-8.753 3.289-13.42 3.312-11.518-.023-17.277-6.397-17.277-19.121 0-6.055 1.537-10.665 4.61-13.83 3.073-3.163 7.035-4.746 11.883-4.746Zm-101.224 0c9.88 0 14.82 5.612 14.82 16.834a39.45 39.45 0 0 1-.206 4.063H314.79c.182 3.415 1.018 5.993 2.51 7.734 1.49 1.741 3.864 2.612 7.118 2.612 2.937 0 6.363-.82 10.278-2.458l2.254 5.6c-4.28 2.184-8.752 3.289-13.419 3.312-11.518-.023-17.277-6.397-17.277-19.121 0-6.055 1.536-10.665 4.609-13.83 3.073-3.163 7.034-4.746 11.882-4.746ZM172.163.581v19.7c3.96-2.503 7.773-3.756 11.438-3.756h.102c4.097 0 7.347 1.435 9.748 4.303 2.402 2.868 3.603 7.307 3.603 13.316 0 6.897-1.32 11.968-3.96 15.211-2.642 3.244-6.284 4.867-10.927 4.867-4.19 0-7.672-1.377-10.448-4.133h-.274l-.41 3.279h-7.75c.592-3.346.888-6.59.888-9.732V7.853c0-.796-.296-1.287-.888-1.468l-3.995-1.332.683-4.472h12.19Zm-40.764 16.628v23.354c0 2.527.319 4.36.956 5.498.638 1.138 1.878 1.707 3.722 1.707 3.3 0 6.544-1.628 9.732-4.882V24.14c0-.57-.058-.944-.172-1.126-.113-.183-.432-.32-.956-.41l-3.346-.854.615-4.541h11.916v29.808c0 .843.296 1.31.888 1.4l3.653.477v4.474h-11.062l-.615-4.268-.205-.069c-4.324 3.46-8.684 5.19-13.077 5.19-3.688 0-6.288-.945-7.802-2.834-1.514-1.89-2.27-4.917-2.27-9.082V24.14c0-.57-.064-.944-.189-1.126-.124-.183-.437-.32-.939-.41l-3.585-.854.65-4.541h12.086Zm156.897-.684c3.688 0 6.323 1.025 7.905 3.074 1.582 2.048 2.373 5.007 2.373 8.878v18.54c0 .57.057.933.171 1.092.113.16.432.262.956.308l3.824.477v4.474h-17.756v-4.405l3.655-.478c.7-.085 1.064-.497 1.091-1.237v-16.62c0-2.368-.29-4.184-.87-5.447-.58-1.262-1.759-1.895-3.533-1.895-2.846 0-5.703.934-8.57 2.8.181 1.07.273 2.38.273 3.927v17.004c0 .57.056.933.17 1.092.113.16.42.262.922.308l3.243.477v4.474h-17.209v-4.405l3.689-.478c.455-.046.756-.176.904-.393.148-.215.222-.552.222-1.007V31.003c0-1.252-.034-2.253-.103-3.004a11.636 11.636 0 0 0-.478-2.357c-.25-.819-.693-1.428-1.332-1.826-.637-.399-1.444-.598-2.424-.598-2.754 0-5.644 1.195-8.672 3.586v20.213c0 .57.062.933.188 1.092.125.16.438.262.938.308l3.415.477v4.474H244.25v-4.405l3.346-.546c.455-.046.757-.165.905-.359.148-.193.221-.54.221-1.041V24.48c0-.796-.307-1.285-.921-1.467l-3.858-1.332.716-4.473h10.346l.547 3.926.307.069c4.097-3.119 8.08-4.679 11.95-4.679 3.961 0 6.739 1.4 8.331 4.2 4.326-2.8 8.378-4.2 12.156-4.2ZM212.788.581v46.436c0 .57.063.933.189 1.092.124.16.437.262.939.308l3.926.477v4.474h-18.2v-4.405l3.996-.546c.455-.046.757-.165.905-.359.148-.193.221-.54.221-1.041V7.853c0-.796-.307-1.287-.921-1.468l-3.996-1.332.718-4.472h12.223Zm22.437 16.628v29.808c0 .57.062.933.187 1.092.126.16.438.262.939.308l4.132.477v4.474h-18.61v-4.405l4.2-.546c.456-.046.757-.165.905-.359.148-.193.223-.54.223-1.041V24.48c0-.796-.308-1.285-.923-1.467l-3.858-1.332.718-4.473h12.087ZM408.535 2.73v12.872h-5.804l-1.127-6.077c-.09-.523-.467-.785-1.127-.785h-9.424v38.207c0 .524.058.86.17 1.008.115.148.433.245.957.29l7.683.58v4.542h-25.336v-4.541l7.204-.478c.456-.047.757-.154.905-.324.148-.172.223-.53.223-1.077V8.741h-9.356c-.66 0-1.036.262-1.127.785l-1.126 6.077h-5.873V2.731h43.158Zm52.215 14.48v4.54l-3.926.581 6.487 8.297 7.068-8.297-4.268-.58.718-4.541h14.34v4.54l-3.073.718c-.66.227-1.297.67-1.912 1.332l-9.014 10.618 10.073 12.6c.66.751 1.285 1.161 1.877 1.229l3.517.648v4.474H464.71v-4.474l3.927-.648-6.795-8.878-7.204 8.878 4.268.648v4.474H443.2v-4.405l3.209-.614c.796-.137 1.49-.558 2.083-1.264l9.594-11.473-9.594-11.882c-.524-.615-1.081-1.012-1.673-1.195l-2.937-.785.717-4.541h16.15Zm-279.369 5.87c-2.845 0-5.895 1.15-9.15 3.45v17.174c2.845 2.664 5.736 3.994 8.673 3.994 5.212 0 7.819-4.358 7.819-13.076 0-3.734-.644-6.59-1.93-8.57-1.286-1.98-3.09-2.972-5.412-2.972Zm141.227-.477c-2.14 0-3.92.745-5.343 2.236-1.422 1.491-2.225 3.75-2.407 6.778h14.682c0-6.01-2.31-9.014-6.932-9.014Zm101.224 0c-2.14 0-3.92.745-5.344 2.236-1.422 1.491-2.224 3.75-2.407 6.778h14.683c0-6.01-2.312-9.014-6.932-9.014ZM230.342 0c1.638 0 2.925.444 3.858 1.332.933.888 1.4 2.15 1.4 3.79 0 1.684-.467 2.976-1.4 3.875-.933.898-2.22 1.348-3.859 1.348-1.684 0-2.98-.45-3.891-1.348-.912-.899-1.367-2.191-1.367-3.875 0-1.64.455-2.902 1.367-3.79C227.36.444 228.657 0 230.34 0Z"/>
  <path fill="url(#sublimetext_svg__a)" d="M40.66 26.566c0-.62-.457-.976-1.018-.799L1.019 38.015C.456 38.193 0 38.84 0 39.458v12.517c0 .62.456.978 1.019.8l38.623-12.247c.561-.179 1.019-.826 1.019-1.445V26.566Z" transform="translate(0 3.584)"/>
  <path fill="#FF9800" d="M0 29.75c0 .62.456 1.267 1.019 1.445l38.628 12.249c.563.178 1.02-.18 1.02-.798V30.128c0-.618-.457-1.265-1.02-1.444L1.02 16.436c-.564-.179-1.02.178-1.02.797v12.518Z"/>
  <path fill="#FF9800" d="M40.66 4.428c0-.619-.457-.977-1.018-.799L1.019 15.876C.456 16.054 0 16.7 0 17.32v12.518c0 .619.456.976 1.019.798L39.642 18.39c.561-.178 1.019-.826 1.019-1.444V4.428Z"/>
</svg>
